places/32/user-home.svg

<?xml version="1.0" encoding="UTF-8" standalone="no"?>
<svg
   xmlns:dc="http://purl.org/dc/elements/1.1/"
   xmlns:cc="http://creativecommons.org/ns#"
   xmlns:rdf="http://www.w3.org/1999/02/22-rdf-syntax-ns#"
   xmlns:svg="http://www.w3.org/2000/svg"
   xmlns="http://www.w3.org/2000/svg"
   xmlns:xlink="http://www.w3.org/1999/xlink"
   version="1.1"
   width="32"
   height="32"
   id="svg16113">
  <defs
     id="defs16115">
    <linearGradient
       x1="27.557428"
       y1="7.162672"
       x2="27.557428"
       y2="21.386522"
       id="linearGradient14868"
       xlink:href="#linearGradient3454-2-5-0-3-4"
       gradientUnits="userSpaceOnUse"
       gradientTransform="matrix(0.89186139,0,0,1.0539115,3.1212694,5.412539)" />
    <linearGradient
       id="linearGradient3454-2-5-0-3-4">
      <stop
         id="stop3456-4-9-38-1-8"
         style="stop-color:#ffffff;stop-opacity:1"
         offset="0" />
      <stop
         id="stop3458-39-80-3-5-5"
         style="stop-color:#ffffff;stop-opacity:0.23529412"
         offset="0.0097359" />
      <stop
         id="stop3460-7-0-2-4-2"
         style="stop-color:#ffffff;stop-opacity:0.15686275"
         offset="0.99001008" />
      <stop
         id="stop3462-0-9-8-7-2"
         style="stop-color:#ffffff;stop-opacity:0.39215687"
         offset="1" />
    </linearGradient>
    <linearGradient
       x1="22.934725"
       y1="49.629246"
       x2="22.809399"
       y2="36.657963"
       id="linearGradient14872"
       xlink:href="#linearGradient6129-963-697-142-998-580-273-5"
       gradientUnits="userSpaceOnUse"
       gradientTransform="matrix(0.7467531,0,0,0.6554922,-1.9214506,1.167619)" />
    <linearGradient
       id="linearGradient6129-963-697-142-998-580-273-5">
      <stop
         id="stop2661-1"
         style="stop-color:#0a0a0a;stop-opacity:0.498"
         offset="0" />
      <stop
         id="stop2663-85"
         style="stop-color:#0a0a0a;stop-opacity:0"
         offset="1" />
    </linearGradient>
    <linearGradient
       x1="35.792694"
       y1="17.118193"
       x2="35.792694"
       y2="43.761127"
       id="linearGradient14876"
       xlink:href="#linearGradient4632-0-6-4-3-4"
       gradientUnits="userSpaceOnUse"
       gradientTransform="matrix(0.64444432,0,0,0.64285702,0.53395936,0.89285905)" />
    <linearGradient
       id="linearGradient4632-0-6-4-3-4">
      <stop
         id="stop4634-4-4-7-7-4"
         style="stop-color:#b4cee1;stop-opacity:1"
         offset="0" />
      <stop
         id="stop4636-3-1-5-1-3"
         style="stop-color:#5d9fcd;stop-opacity:1"
         offset="1" />
    </linearGradient>
    <linearGradient
       x1="302.85715"
       y1="366.64789"
       x2="302.85715"
       y2="609.50507"
       id="linearGradient14886"
       xlink:href="#linearGradient5048-585-0"
       gradientUnits="userSpaceOnUse"
       gradientTransform="matrix(0.05114282,0,0,0.01591575,-2.4899573,22.29927)" />
    <linearGradient
       id="linearGradient5048-585-0">
      <stop
         id="stop2667-18"
         style="stop-color:#000000;stop-opacity:0"
         offset="0" />
      <stop
         id="stop2669-9"
         style="stop-color:#000000;stop-opacity:1"
         offset="0.5" />
      <stop
         id="stop2671-33"
         style="stop-color:#000000;stop-opacity:0"
         offset="1" />
    </linearGradient>
    <radialGradient
       cx="605.71429"
       cy="486.64789"
       r="117.14286"
       fx="605.71429"
       fy="486.64789"
       id="radialGradient14888"
       xlink:href="#linearGradient5060-179-67"
       gradientUnits="userSpaceOnUse"
       gradientTransform="matrix(0.01983573,0,0,0.01591575,16.38765,22.29927)" />
    <linearGradient
       id="linearGradient5060-179-67">
      <stop
         id="stop2675-81"
         style="stop-color:#000000;stop-opacity:1"
         offset="0" />
      <stop
         id="stop2677-2"
         style="stop-color:#000000;stop-opacity:0"
         offset="1" />
    </linearGradient>
    <radialGradient
       cx="605.71429"
       cy="486.64789"
       r="117.14286"
       fx="605.71429"
       fy="486.64789"
       id="radialGradient14890"
       xlink:href="#linearGradient5060-820-4"
       gradientUnits="userSpaceOnUse"
       gradientTransform="matrix(-0.01983573,0,0,0.01591575,15.60139,22.29927)" />
    <linearGradient
       id="linearGradient5060-820-4">
      <stop
         id="stop2681-5"
         style="stop-color:#000000;stop-opacity:1"
         offset="0" />
      <stop
         id="stop2683-00"
         style="stop-color:#000000;stop-opacity:0"
         offset="1" />
    </linearGradient>
    <linearGradient
       x1="21.37039"
       y1="4.73244"
       x2="21.37039"
       y2="34.143417"
       id="linearGradient14894"
       xlink:href="#linearGradient4325"
       gradientUnits="userSpaceOnUse"
       gradientTransform="matrix(0.54383556,0,0,0.61466406,3.2693194,5.091139)" />
    <linearGradient
       id="linearGradient4325">
      <stop
         id="stop4327"
         style="stop-color:#ffffff;stop-opacity:1"
         offset="0" />
      <stop
         id="stop4329"
         style="stop-color:#ffffff;stop-opacity:0.23529412"
         offset="0.1106325" />
      <stop
         id="stop4331"
         style="stop-color:#ffffff;stop-opacity:0.15686275"
         offset="0.99001008" />
      <stop
         id="stop4333"
         style="stop-color:#ffffff;stop-opacity:0.39215687"
         offset="1" />
    </linearGradient>
    <linearGradient
       x1="62.988873"
       y1="13"
       x2="62.988873"
       y2="16"
       id="linearGradient14898"
       xlink:href="#linearGradient4646-7-4-3-5"
       gradientUnits="userSpaceOnUse"
       gradientTransform="matrix(0.61904762,0,0,0.61904762,-30.391371,1.428569)" />
    <linearGradient
       id="linearGradient4646-7-4-3-5">
      <stop
         id="stop4648-8-0-3-6"
         style="stop-color:#f9f9f9;stop-opacity:1"
         offset="0" />
      <stop
         id="stop4650-1-7-3-4"
         style="stop-color:#d8d8d8;stop-opacity:1"
         offset="1" />
    </linearGradient>
    <linearGradient
       id="linearGradient3104-8-8-97-4-6-11-5-5-0">
      <stop
         id="stop3106-5-4-3-5-0-2-1-0-6"
         style="stop-color:#000000;stop-opacity:0.32173914"
         offset="0" />
      <stop
         id="stop3108-4-3-7-8-2-0-7-9-1"
         style="stop-color:#000000;stop-opacity:0.27826086"
         offset="1" />
    </linearGradient>
    <linearGradient
       x1="-51.786404"
       y1="53.514328"
       x2="-51.786404"
       y2="3.6336823"
       id="linearGradient16097"
       xlink:href="#linearGradient3104-8-8-97-4-6-11-5-5-0"
       gradientUnits="userSpaceOnUse"
       gradientTransform="matrix(0.50703384,0,0,0.50300255,68.029659,1.329769)" />
  </defs>
  <metadata
     id="metadata16118">
    <rdf:RDF>
      <cc:Work
         rdf:about="">
        <dc:format>image/svg+xml</dc:format>
        <dc:type
           rdf:resource="http://purl.org/dc/dcmitype/StillImage" />
        <dc:title />
      </cc:Work>
    </rdf:RDF>
  </metadata>
  <g
     id="layer1">
    <path
       d="m 4.0006194,6.500079 c -0.43342,0.005 -0.5,0.21723 -0.5,0.6349 l 0,1.36502 c -1.24568,0 -1,-0.002 -1,0.54389 0.0216,6.53313 0,6.90143 0,7.456109 0.90135,0 26.9999996,-2.348949 26.9999996,-3.360049 l 0,-4.09606 c 0,-0.41767 -0.34799,-0.54876 -0.78141,-0.54389 l -14.21859,0 0,-1.36502 c 0,-0.41767 -0.26424,-0.63977 -0.69767,-0.6349 l -9.8023296,0 z"
       id="use7669"
       style="opacity:0.8;color:#000000;fill:none;stroke:url(#linearGradient16097);stroke-width:1;stroke-linecap:butt;stroke-linejoin:miter;stroke-miterlimit:4;stroke-opacity:1;stroke-dasharray:none;stroke-dashoffset:0;marker:none;visibility:visible;display:inline;overflow:visible;enable-background:accumulate" />
    <path
       d="m 4.0006194,6.999999 0,2 -1,0 0,4 25.9999996,0 0,-4 -15,0 0,-2 -9.9999996,0 z"
       id="use7671"
       style="color:#000000;fill:url(#linearGradient14898);fill-opacity:1;fill-rule:nonzero;stroke:none;stroke-width:1;marker:none;visibility:visible;display:inline;overflow:visible;enable-background:accumulate" />
    <path
       d="m 4.5006194,7.499999 0,2 -1,0 0,4 24.9999996,0 0,-4 -15,0 0,-2 -8.9999996,0 z"
       id="use7673"
       style="color:#000000;fill:none;stroke:url(#linearGradient14894);stroke-width:1;stroke-linecap:round;stroke-linejoin:miter;stroke-miterlimit:4;stroke-opacity:1;stroke-dasharray:none;stroke-dashoffset:0;marker:none;visibility:visible;display:inline;overflow:visible;enable-background:accumulate" />
    <g
       transform="translate(6.1935663e-4,-1.000001)"
       id="use7675">
      <rect
         width="24.694677"
         height="3.8652544"
         x="3.6471815"
         y="28.134747"
         id="rect14880"
         style="opacity:0.3;fill:url(#linearGradient14886);fill-opacity:1;fill-rule:nonzero;stroke:none;stroke-width:1;marker:none;visibility:visible;display:inline;overflow:visible" />
      <path
         d="m 28.341859,28.13488 c 0,0 0,3.865041 0,3.865041 1.021491,0.0073 2.469468,-0.86596 2.469468,-1.932769 0,-1.06681 -1.139908,-1.932272 -2.469468,-1.932272 z"
         id="path14882"
         style="opacity:0.3;fill:url(#radialGradient14888);fill-opacity:1;fill-rule:nonzero;stroke:none;stroke-width:1;marker:none;visibility:visible;display:inline;overflow:visible" />
      <path
         d="m 3.6471816,28.13488 c 0,0 0,3.865041 0,3.865041 -1.0214912,0.0073 -2.4694678,-0.86596 -2.4694678,-1.932769 0,-1.06681 1.1399068,-1.932272 2.4694678,-1.932272 z"
         id="path14884"
         style="opacity:0.3;fill:url(#radialGradient14890);fill-opacity:1;fill-rule:nonzero;stroke:none;stroke-width:1;marker:none;visibility:visible;display:inline;overflow:visible" />
    </g>
    <path
       d="m 1.9274594,11.499999 c -0.69105,0.0796 -0.32196,0.90258 -0.37705,1.36535 0.0802,0.29906 0.59771,15.717989 0.59771,16.247439 0,0.46018 0.22667,0.38222 0.80101,0.38222 8.4993996,0 17.8980796,0 26.3974796,0 0.61872,0.0143 0.48796,0.007 0.48796,-0.38947 0.0452,-0.20269 0.63993,-16.978479 0.66282,-17.243439 0,-0.279 0.0581,-0.3621 -0.30493,-0.3621 -9.0765,0 -19.18849,0 -28.2649996,0 z"
       id="use7677"
       style="color:#000000;fill:url(#linearGradient14876);fill-opacity:1;fill-rule:nonzero;stroke:none;stroke-width:0.99999994;marker:none;visibility:visible;display:inline;overflow:visible;enable-background:accumulate" />
    <path
       d="m 1.6824394,10.999999 28.6363696,2.7e-4 c 0.4137,0 0.68181,0.29209 0.68181,0.65523 l -0.6735,17.712109 c 0.01,0.45948 -0.1364,0.64166 -0.61707,0.63203 l -27.2561296,-0.0115 c -0.4137,0 -0.83086,-0.27118 -0.83086,-0.63432 l -0.62244,-17.698289 c 0,-0.36314 0.26812,-0.65549 0.68182,-0.65549 z"
       id="use7679"
       style="opacity:0.4;fill:url(#linearGradient14872);fill-opacity:1;stroke:none" />
    <path
       d="m 2.5006194,12.499999 0.62498,15.999999 25.7491696,0 0.62498,-15.999999 z"
       id="use7681"
       style="opacity:0.5;color:#000000;fill:none;stroke:url(#linearGradient14868);stroke-width:1.00000012;stroke-linecap:round;stroke-linejoin:miter;stroke-miterlimit:4;stroke-opacity:1;stroke-dasharray:none;stroke-dashoffset:0;marker:none;visibility:visible;display:inline;overflow:visible;enable-background:accumulate" />
    <path
       d="m 16.000179,17.999998 -3.875,3.875 0.75,0.75 0.625,-0.625 0,3 2,0 0,-1.5 c 0,-0.277 0.223,-0.5 0.5,-0.5 0.277,0 0.5,0.223 0.5,0.5 l 0,1.5 2,0 0,-3 0.625,0.625 0.75,-0.75 -3.875,-3.875 z m 1.5,0.5 0,0.375 1,1 0,-1.375 -1,0 z"
       id="path2998-4-8-1"
       style="opacity:0.3;color:#000000;fill:#ffffff;fill-opacity:1;fill-rule:nonzero;stroke:none;stroke-width:1.70000005;marker:none;visibility:visible;display:inline;overflow:visible;enable-background:accumulate" />
    <path
       d="m 16.000179,16.999998 -3.875,3.875 0.75,0.75 0.625,-0.625 0,3 2,0 0,-1.5 c 0,-0.277 0.223,-0.5 0.5,-0.5 0.277,0 0.5,0.223 0.5,0.5 l 0,1.5 2,0 0,-3 0.625,0.625 0.75,-0.75 -3.875,-3.875 z m 1.5,0.5 0,0.375 1,1 0,-1.375 -1,0 z"
       id="path2998-4-8"
       style="color:#000000;fill:#175785;fill-opacity:0.5521628;fill-rule:nonzero;stroke:none;stroke-width:1.70000005;marker:none;visibility:visible;display:inline;overflow:visible;enable-background:accumulate" />
    <path
       d="m 1.9270194,11.499999 c -0.69105,0.0796 -0.32196,0.90258 -0.37705,1.36535 0.0802,0.29906 0.59771,15.717989 0.59771,16.247439 0,0.46018 0.22667,0.38222 0.80101,0.38222 8.4993996,0 17.8980796,0 26.3974796,0 0.61872,0.0143 0.48796,0.007 0.48796,-0.38947 0.0452,-0.20269 0.63993,-16.978479 0.66282,-17.243439 0,-0.279 0.0581,-0.3621 -0.30493,-0.3621 -9.0765,0 -19.18849,0 -28.2649996,0 z"
       id="path3388-5-0"
       style="opacity:0.3;color:#000000;fill:none;stroke:#000000;stroke-width:0.99999994;stroke-linecap:round;stroke-linejoin:round;stroke-miterlimit:4;stroke-opacity:1;stroke-dasharray:none;stroke-dashoffset:0;marker:none;visibility:visible;display:inline;overflow:visible;enable-background:accumulate" />
  </g>
</svg>

<svg xmlns="http://www.w3.org/2000/svg" xmlns:xlink="http://www.w3.org/1999/xlink" viewBox="0 0 32 32"><defs><linearGradient x1="27.557" y1="7.163" x2="27.557" y2="21.387" id="r" xlink:href="#a" gradientUnits="userSpaceOnUse" gradientTransform="matrix(.89186 0 0 1.0539 3.12 5.413)"/><linearGradient id="a"><stop offset="0" stop-color="#fff"/><stop offset=".01" stop-color="#fff" stop-opacity=".235"/><stop offset=".99" stop-color="#fff" stop-opacity=".157"/><stop offset="1" stop-color="#fff" stop-opacity=".392"/></linearGradient><linearGradient x1="22.935" y1="49.629" x2="22.809" y2="36.658" id="q" xlink:href="#b" gradientUnits="userSpaceOnUse" gradientTransform="matrix(.74675 0 0 .6555 -1.92 1.168)"/><linearGradient id="b"><stop offset="0" stop-color="#0a0a0a" stop-opacity=".498"/><stop offset="1" stop-color="#0a0a0a" stop-opacity="0"/></linearGradient><linearGradient x1="35.793" y1="17.118" x2="35.793" y2="43.761" id="p" xlink:href="#c" gradientUnits="userSpaceOnUse" gradientTransform="matrix(.64444 0 0 .64286 .534 .893)"/><linearGradient id="c"><stop offset="0" stop-color="#b4cee1"/><stop offset="1" stop-color="#5d9fcd"/></linearGradient><linearGradient x1="302.857" y1="366.648" x2="302.857" y2="609.505" id="m" xlink:href="#d" gradientUnits="userSpaceOnUse" gradientTransform="matrix(.05114 0 0 .01592 -2.49 22.3)"/><linearGradient id="d"><stop offset="0" stop-opacity="0"/><stop offset=".5"/><stop offset="1" stop-opacity="0"/></linearGradient><radialGradient cx="605.714" cy="486.648" r="117.143" fx="605.714" fy="486.648" id="n" xlink:href="#e" gradientUnits="userSpaceOnUse" gradientTransform="matrix(.01984 0 0 .01592 16.388 22.3)"/><linearGradient id="e"><stop offset="0"/><stop offset="1" stop-opacity="0"/></linearGradient><radialGradient cx="605.714" cy="486.648" r="117.143" fx="605.714" fy="486.648" id="o" xlink:href="#f" gradientUnits="userSpaceOnUse" gradientTransform="matrix(-.01984 0 0 .01592 15.6 22.3)"/><linearGradient id="f"><stop offset="0"/><stop offset="1" stop-opacity="0"/></linearGradient><linearGradient x1="21.37" y1="4.732" x2="21.37" y2="34.143" id="l" xlink:href="#g" gradientUnits="userSpaceOnUse" gradientTransform="matrix(.54384 0 0 .61466 3.27 5.09)"/><linearGradient id="g"><stop offset="0" stop-color="#fff"/><stop offset=".111" stop-color="#fff" stop-opacity=".235"/><stop offset=".99" stop-color="#fff" stop-opacity=".157"/><stop offset="1" stop-color="#fff" stop-opacity=".392"/></linearGradient><linearGradient x1="62.989" y1="13" x2="62.989" y2="16" id="k" xlink:href="#h" gradientUnits="userSpaceOnUse" gradientTransform="translate(-30.39 1.43) scale(.61905)"/><linearGradient id="h"><stop offset="0" stop-color="#f9f9f9"/><stop offset="1" stop-color="#d8d8d8"/></linearGradient><linearGradient id="i"><stop offset="0" stop-opacity=".322"/><stop offset="1" stop-opacity=".278"/></linearGradient><linearGradient x1="-51.786" y1="53.514" x2="-51.786" y2="3.634" id="j" xlink:href="#i" gradientUnits="userSpaceOnUse" gradientTransform="matrix(.50703 0 0 .503 68.03 1.33)"/></defs><path d="M4 6.5c-.433.005-.5.217-.5.635V8.5c-1.245 0-1-.002-1 .544.022 6.533 0 6.9 0 7.456.902 0 27-2.35 27-3.36V9.044c0-.418-.347-.55-.78-.544H14.5V7.135c0-.418-.264-.64-.697-.635H4z" opacity=".8" color="#000" fill="none" stroke="url(#j)" overflow="visible"/><path d="M4 7v2H3v4h26V9H14V7H4z" color="#000" fill="url(#k)" overflow="visible"/><path d="M4.5 7.5v2h-1v4h25v-4h-15v-2h-9z" color="#000" fill="none" stroke="url(#l)" stroke-linecap="round" overflow="visible"/><path opacity=".3" fill="url(#m)" overflow="visible" d="M3.647 28.135h24.695V32H3.647z" transform="translate(0 -1)"/><path d="M28.342 28.135V32c1.02.007 2.47-.866 2.47-1.933 0-1.067-1.14-1.932-2.47-1.932z" opacity=".3" fill="url(#n)" overflow="visible" transform="translate(0 -1)"/><path d="M3.647 28.135V32c-1.02.007-2.47-.866-2.47-1.933 0-1.067 1.14-1.932 2.47-1.932z" opacity=".3" fill="url(#o)" overflow="visible" transform="translate(0 -1)"/><path d="M1.927 11.5c-.69.08-.322.903-.377 1.365.08.3.598 15.718.598 16.248 0 .46.227.382.8.382h26.4c.617.014.487.007.487-.39.045-.202.64-16.978.662-17.243 0-.28.058-.362-.305-.362H1.927z" color="#000" fill="url(#p)" overflow="visible"/><path d="M1.682 11H30.32c.413 0 .68.292.68.655l-.673 17.713c.01.46-.136.64-.617.632l-27.256-.012c-.414 0-.83-.27-.83-.634L1 11.656c0-.364.27-.656.682-.656z" opacity=".4" fill="url(#q)"/><path d="M2.5 12.5l.626 16h25.75l.624-16z" opacity=".5" color="#000" fill="none" stroke="url(#r)" stroke-linecap="round" overflow="visible"/><path d="M16 18l-3.875 3.875.75.75L13.5 22v3h2v-1.5a.5.5 0 0 1 1 0V25h2v-3l.625.625.75-.75L16 18zm1.5.5v.375l1 1V18.5h-1z" opacity=".3" color="#000" fill="#fff" overflow="visible"/><path d="M16 17l-3.875 3.875.75.75L13.5 21v3h2v-1.5a.5.5 0 0 1 1 0V24h2v-3l.625.625.75-.75L16 17zm1.5.5v.375l1 1V17.5h-1z" color="#000" fill="#175785" fill-opacity=".552" overflow="visible"/><path d="M1.927 11.5c-.69.08-.322.903-.377 1.365.08.3.598 15.718.598 16.248 0 .46.226.382.8.382h26.398c.62.014.488.007.488-.39.045-.202.64-16.978.663-17.243 0-.28.058-.362-.305-.362H1.927z" opacity=".3" color="#000" fill="none" stroke="#000" stroke-linecap="round" stroke-linejoin="round" overflow="visible"/></svg>
